X: 4
T: The Queen Of May
R: reel
M: 4/4
L: 1/8
K: Edor
|dcdf egdB | ADFD FAAG | Bddf edBc | dBAF BEE2 |
dcdf egdB |ADFD FAAG | Bddf edBA | Bcef gfge||
Beef gfge |defg afdf | e^def gafe | dBAF BEE2 |
Beef gfge |defg afdf | gbag fage | dBAF BEE2 ||


Tune 2518	Setting 28211

